static/logos/wistia-glyph-color.svg

<svg width="50" height="39" viewBox="0 0 50 39" fill="none" xmlns="http://www.w3.org/2000/svg">
<g clip-path="url(#clip0_1_380)">
<path d="M29.3926 37.3334C23.0038 39.0926 8.59635 38.2408 6.28154 38.2408H0.929688L9.7445 28.2963C12.1334 25.6112 13.4482 25.0556 16.0223 25.0556C18.5964 25.0556 24.8556 25.3149 28.2075 25.0556C32.9036 24.7834 37.4902 23.528 41.6704 21.3704C47.1334 17.9261 48.226 15.8149 48.226 15.8149C48.226 15.8149 50.1704 31.6112 29.3926 37.3334Z" fill="#3363E7"/>
<path d="M47.5778 9.426C48.5778 3.33341 45.1334 1.66675 45.1334 1.66675C45.1334 1.66675 45.3741 6.6297 36.1149 7.68526C28.0223 8.61119 0.929688 7.90748 0.929688 7.90748L9.65191 17.9075C10.3478 18.9243 11.2863 19.7515 12.3825 20.3141C13.4786 20.8769 14.6979 21.1571 15.9297 21.1297C20.0965 21.3004 24.2697 21.2386 28.4297 20.9445C33.7301 20.6526 38.8512 18.9243 43.2445 15.9445C45.4317 14.3692 46.9719 12.0525 47.5778 9.426Z" fill="#3363E7"/>
</g>
<defs>
<clipPath id="clip0_1_380">
<rect width="50" height="38.8889" fill="white"/>
</clipPath>
</defs>
</svg>

<svg xmlns="http://www.w3.org/2000/svg" width="82.051" height="64" fill="none" viewBox="0 0 50 39"><g fill="#3363E7" clip-path="url(#a)"><path d="M29.393 37.333c-6.39 1.76-20.797.908-23.111.908H.93l8.814-9.945c2.39-2.685 3.704-3.24 6.278-3.24 2.574 0 8.834.259 12.186 0A33.59 33.59 0 0 0 41.67 21.37c5.463-3.444 6.556-5.555 6.556-5.555S50.17 31.61 29.393 37.333Z"/><path d="M47.578 9.426c1-6.093-2.445-7.76-2.445-7.76s.241 4.964-9.018 6.02C28.022 8.61.93 7.906.93 7.906l8.722 10a7.407 7.407 0 0 0 6.278 3.223c4.166.17 8.34.109 12.5-.185a29.259 29.259 0 0 0 14.815-5 11.112 11.112 0 0 0 4.333-6.519Z"/></g><defs><clipPath id="a"><path fill="#fff" d="M0 0h50v38.889H0z"/></clipPath></defs></svg>
